X:1
T:The Patriot’s Prayer
T:The Patriot’s Prayer
T:William Howard Doane
T:Frances Jane (Fanny) Crosby, 1905
T:Public Domain Courtesy of the Cyber Hymnal™
T:Public Domain Courtesy of the Cyber Hymnal™
C:William Howard Doane
Z:Public Domain
Z:Courtesy of the Cyber Hymnal™
%%score ( 1 2 ) ( 3 4 )
L:1/8
Q:1/4=105
M:4/4
K:F
V:1 treble 
V:2 treble 
V:3 bass 
V:4 bass 
V:1
 [Fc]2 [Fd]>[Fc] [FA]2 [EG]2 | F2 [EG]2 [FA]4 | [FB]2 [FA]>[EG] [Fc]2 (cd) | [Ge]2 [Fd]2 [Ec]4 | %4
w: 1.~God of our sires that|joy- ful sang,|While for- est shades tri- *|umph- ant rang,|
w: 2.~God of the brave that|sought Thy aid,|And in Thy robe of *|strength ar- rayed,|
w: 3.~And when the call to|arms a- gain|Was heard a- far o’er *|hill and plain,|
w: 4.~God of our land, Thy|gift so free,|O hear the prayer we *|breathe to Thee;|
 [Fc]2 [Fd]>[Fc] [FA]2 [EG]2 | F2 ([EG][FA]) [FB]4 | [Fc]2 [EB]>[FA] (AG) ([GB][DG]) | %7
w: When on the wild New|Eng- land * shore,|Their sails were furled, * their *|
w: They won for us be-|neath Thy * care,|The flag we prize, * the *|
w: Thy might- y hand up-|held the * right,|Thy love re- stored * Thy *|
w: Let un- ion’s bond our|souls en- * twine,|And guard a- like * the *|
 [CF]2 [CE]2 [CF]4 |"^riten." [EG]2 [_EG]>[EG] [DG]2 [^FA]2 | [GB]2 [EG]2 [FA]4 | %10
w: voy- age o’er.|O Lord, de- fend Thy|child- ren yet,|
w: peace we share,|O Lord, de- fend our|na- tion yet,|
w: ban- ner bright,|O Lord, de- fend our|na- tion yet,|
w: palm and pine.|O Lord, de- fend our|na- tion yet,|
 [EG]2 [EG]>[FA] [EG]2 [Gc]2 | [Ge]2 [Fd]2 [Ec]4 | [Fc]2 [Fd]>[Fc] [FA]2 ([EG]F) | %13
w: Nor let our hearts Thy|name for- get;|O Lord, de- fend Thy *|
w: Nor let our hearts Thy|name for- get;|O Lord, de- fend our *|
w: Nor let our hearts Thy|name for- get;|O Lord, de- fend our *|
w: Nor let our hearts Thy|name for- get;|O Lord, de- fend our *|
 [Ff]3 [Fe] (!fermata!e2 d2) | [Fc]2 [EB]>[_EA] (AG) ([GB][DG]) | [CF]2 [CE]2 [CF]4 |] %16
w: child- ren yet, *|Nor let our hearts * Thy *|name for- get.|
w: na- tion yet, *|Nor let our hearts * Thy *|name for- get.|
w: na- tion yet, *|Nor let our hearts * Thy *|name for- get.|
w: na- tion yet, *|Nor let our hearts * Thy *|name for- get.|
V:2
 x8 | F2 x6 | x6 F2 | x8 | x8 | F2 x6 | x4 D2 x2 | x8 | x8 | x8 | x8 | x8 | x8 | x4 [Fd]4 | %14
 x4 D2 x2 | x8 |] %16
V:3
 [F,A,]2 [F,B,]>[F,A,] [F,C]2 [C,B,]2 | [D,A,]2 [C,C]2 [F,C]4 | [F,D]2 [F,C]>[B,C] [A,C]2 A,2 | %3
 [G,C]2 [G,,=B,]2 [C,C]4 | [F,A,]2 [F,B,]>[F,A,] [F,C]2 [C,B,]2 | [D,A,]2 C2 [B,,D]4 | %6
 [A,C]2 [G,C]>[F,C] (CB,) (DB,) | [C,A,]2 [C,G,]2 [F,A,]4 | [C,C]2 [C,C]>[C,C] [B,,C]2 [A,,D]2 | %9
 [G,,D]2 [C,C]2 [F,C]4 | [G,C]2 [G,C]>[G,C] [G,C]2 [G,E]2 | [G,C]2 [G,,=B,]2 (C2 _B,2) | %12
 [F,A,]2 [F,B,]>[F,A,] [F,C]2 C2 | [B,D]3 [B,C] (!fermata!C2 B,2) | %14
 [A,C]2 [G,C]>[F,C] (CB,) (DB,) | [C,A,]2 [C,B,]2 [F,A,]4 |] %16
V:4
 x8 | x8 | x6 (F,D,) | x8 | x8 | x2 (C,F,) x4 | x4 B,,2 B,,2 | x8 | x8 | x8 | x8 | x4 C,4 | %12
 x6 (G,A,) | x4 B,4 | x4 B,,2 B,,2 | x8 |] %16

